src/assets/images/icons/moonFog.svg

<?xml version="1.0" encoding="utf-8"?><!-- Uploaded to: SVG Repo, www.svgrepo.com, Generator: SVG Repo Mixer Tools -->
<svg width="100%" height="100%" viewBox="0 0 24 24" fill="currentColor" xmlns="http://www.w3.org/2000/svg">
<path d="M2 12C2 6.47715 6.47715 2 12 2C12.4627 2 12.5392 2.69347 12.1432 2.93276C10.2594 4.07105 9 6.13845 9 8.5C9 12.0899 11.9101 15 15.5 15C17.8615 15 19.9289 13.7406 21.0672 11.8568C21.3065 11.4608 22 11.5373 22 12C22 13.1377 21.81 14.231 21.46 15.25H22C22.4142 15.25 22.75 15.5858 22.75 16C22.75 16.4142 22.4142 16.75 22 16.75H2C1.58579 16.75 1.25 16.4142 1.25 16C1.25 15.5858 1.58579 15.25 2 15.25H2.53998C2.18999 14.231 2 13.1377 2 12Z" fill="currentColor"/>
<path d="M5 18.25C4.58579 18.25 4.25 18.5858 4.25 19C4.25 19.4142 4.58579 19.75 5 19.75H19C19.4142 19.75 19.75 19.4142 19.75 19C19.75 18.5858 19.4142 18.25 19 18.25H5Z" fill="currentColor"/>
<path d="M8 21.25C7.58579 21.25 7.25 21.5858 7.25 22C7.25 22.4142 7.58579 22.75 8 22.75H16C16.4142 22.75 16.75 22.4142 16.75 22C16.75 21.5858 16.4142 21.25 16 21.25H8Z" fill="currentColor"/>
<path d="M19.9001 2.30719C19.7392 1.8976 19.1616 1.8976 19.0007 2.30719L18.5703 3.40247C18.5212 3.52752 18.4226 3.62651 18.298 3.67583L17.2067 4.1078C16.7986 4.26934 16.7986 4.849 17.2067 5.01054L18.298 5.44252C18.4226 5.49184 18.5212 5.59082 18.5703 5.71587L19.0007 6.81115C19.1616 7.22074 19.7392 7.22074 19.9001 6.81116L20.3305 5.71587C20.3796 5.59082 20.4782 5.49184 20.6028 5.44252L21.6941 5.01054C22.1022 4.849 22.1022 4.26934 21.6941 4.1078L20.6028 3.67583C20.4782 3.62651 20.3796 3.52752 20.3305 3.40247L19.9001 2.30719Z" fill="currentColor"/>
<path d="M16.0328 8.12967C15.8718 7.72009 15.2943 7.72009 15.1333 8.12967L14.9764 8.52902C14.9273 8.65407 14.8287 8.75305 14.7041 8.80237L14.3062 8.95987C13.8981 9.12141 13.8981 9.70107 14.3062 9.86261L14.7041 10.0201C14.8287 10.0694 14.9273 10.1684 14.9764 10.2935L15.1333 10.6928C15.2943 11.1024 15.8718 11.1024 16.0328 10.6928L16.1897 10.2935C16.2388 10.1684 16.3374 10.0694 16.462 10.0201L16.8599 9.86261C17.268 9.70107 17.268 9.12141 16.8599 8.95987L16.462 8.80237C16.3374 8.75305 16.2388 8.65407 16.1897 8.52902L16.0328 8.12967Z" fill="currentColor"/>
</svg>

<svg viewBox="0 0 24 24" fill="currentColor" xmlns="http://www.w3.org/2000/svg"><path d="M2 12C2 6.477 6.477 2 12 2c.463 0 .54.693.143.933a6.5 6.5 0 1 0 8.924 8.924c.24-.396.933-.32.933.143 0 1.138-.19 2.231-.54 3.25H22a.75.75 0 0 1 0 1.5H2a.75.75 0 0 1 0-1.5h.54A9.987 9.987 0 0 1 2 12ZM5 18.25a.75.75 0 0 0 0 1.5h14a.75.75 0 0 0 0-1.5H5ZM8 21.25a.75.75 0 0 0 0 1.5h8a.75.75 0 0 0 0-1.5H8ZM19.9 2.307a.483.483 0 0 0-.9 0l-.43 1.095a.484.484 0 0 1-.272.274l-1.091.432a.486.486 0 0 0 0 .903l1.091.432c.125.049.223.148.272.273L19 6.81c.162.41.74.41.9 0l.43-1.095a.484.484 0 0 1 .273-.273l1.091-.432a.486.486 0 0 0 0-.903l-1.091-.432a.484.484 0 0 1-.273-.274l-.43-1.095Z"/><path d="M16.033 8.13a.483.483 0 0 0-.9 0l-.157.399a.484.484 0 0 1-.272.273l-.398.158a.486.486 0 0 0 0 .903l.398.157c.125.05.223.148.272.274l.157.399c.161.41.739.41.9 0l.157-.4a.484.484 0 0 1 .272-.273l.398-.157a.486.486 0 0 0 0-.903l-.398-.158a.484.484 0 0 1-.272-.273l-.157-.4Z"/></svg>
